!!!!SEGMENT: pl-kk--kk-i-3--001_anonim--et-cum-spiritu-tuo.krn
!!!cenid: 15xx:566
!!!COM: Anonim
!!!COM-rismID: pe30004985
!!!CDT:
!!!CNT:
!!!OTL: Et cum spiritu tuo
!!!PDT:
!!!AGN:
!!!SMS-siglum: PL-Kk
!!!SMS-shelfmark: Kk.I.3
!!!SMS-shelfwork: 001 W
!!!SMS-variant:
!!!SMS-altvar:
!!!NIFC-rismSourceID: 1001145494
!!!NIFC-islandoraID: pl-kk:1170
!!!URL-pdf-islandora: https://repozytorium.nifc.pl/islandora/object/pl-kk%3A1170/datastream/PDF/view
!!!URL-scan: https://polish.musicsources.pl/pl/lokalizacje/galeria/rekopisy/5919 @EN{Scan on Polish Music Herritage in Open Access Website} @PL{Skany w portalu Dziedzictwo Muzyki Polskiej w otwartym dostępie}
!!!ONB-nifc: UWAGA: Discantus (s. 1r cała, skan 0003), Tenor (s. 1r cała, skan 0173), Bassus (s. 1r cała, skan 0304)
!!!AIN: 1 alto 1 bass 1 tenor
!!!key:
**kern	**text	**kern	**text	**kern	**text
*part3	*part3	*part2	*part2	*part1	*part1
*staff3	*staff3	*staff2	*staff2	*staff1	*staff1
*I"Bassus	*	*I"Tenor	*	*I"Discantus	*
*I'B	*	*I'T	*	*I'A	*
*Ibass	*	*Itenor	*	*Ialto	*
*ICvox	*	*ICvox	*	*ICvox	*
*clefF4	*	*clefC4	*	*clefC4	*
*k[]	*	*k[]	*	*k[b-]	*
*F:	*	*F:	*	*F:	*
=1-	=1-	=1-	=1-	=1-	=1-
!LO:TX:t=P:problem=brak oznaczenia tonacji	!	!LO:TX:t=P:problem=brak oznaczenia tonacji	!	!	!
!LO:TX:t=P:problem=brak oznaczenia menzuralnego	!	!LO:TX:t=P:problem=brak oznaczenia menzuralnego	!	!LO:TX:t=P:problem=brak oznaczenia menzuralnego	!
1F	Et	1F	Et	1c	Et
1D	cu(m)	1F	cu(m)	1d	cu(m)
=2-	=2-	=2-	=2-	=2-	=2-
*	*	*	*	*2\right	*
2BB-y/	ſpi-	2F/	ſpi-	2d\	ſp(i-
2BB-/	-ri-	2F/	-ri-	2d\	-ri-
1BB-	-tu	1F	-tu	1d	-t)u
=3-	=3-	=3-	=3-	=3-	=3-
1D	tu-	1F	tu-	1A	tu-
0C	.	0E	.	0c	.
=4-	=4-	=4-	=4-	=4-	=4-
.	.	.	.	.	.
!LO:TX:t=P:color=red:problem=kreska pseudotaktowa	!	!	!	!LO:TX:t=P:color=red:problem=kreska pseudotaktowa	!
!LO:N:vis=0	!	!LO:N:vis=0	!	!LO:N:vis=0	!
1FF;	-o	1F;	-o	1c;	-o
=5-	=5-	=5-	=5-	=5-	=5-
1F	A-	1F	A-	1c	A-
1C	.	1E	.	1c	.
=6-	=6-	=6-	=6-	=6-	=6-
0BB-y	.	0F	.	0d	.
=7-	=7-	=7-	=7-	=7-	=7-
0FF;	-men	0F;	-men	0c;<	-men
!LO:LB:g=original	!	!LO:LB:g=original	!	!LO:LB:g=original	!
=8-	=8-	=8-	=8-	=8-	=8-
1F	Glo-	1F	Glo-	1c	Glo-
2D/	-ri-	2F/	-ri-	2d\	-ri-
2D/	-a	2F/	-a	2d\	-a
=9-	=9-	=9-	=9-	=9-	=9-
1BB-y	ti-	1F	ti-	1d	ti-
1C	-bi	1E	-bi	1c	-bi
=10-	=10-	=10-	=10-	=10-	=10-
2D/	do-	1D	do-	2A/	do-
2GG/	.	.	.	2B-/	.
1AA	.	1C	-mi-	1A	.
=11-	=11-	=11-	=11-	=11-	=11-
2BB-y/	.	[0Dl;	-ne	2F/	.
2GG/	.	.	.	1B-\	.
1BB-	-mi-	.	.	.	.
.	.	.	.	2B-/	mi-
=12-	=12-	=12-	=12-	=12-	=12-
0D;	-ne	0D]	.	0A;	-ne
!LO:LB:g=original	!	!LO:LB:g=original	!	!LO:LB:g=original	!
=13-	=13-	=13-	=13-	=13-	=13-
*	*	*	*	*clefC3	*
!LO:TX:a:B:t=Ad Prae\nfacionem:color=red	!	!LO:TX:a:B:t=ad Prefacionem:color=red	!	!LO:TX:a:B:t=ad Prefa\ncionem:color=red	!
0F	A-	0F	A-	0c	a-
.	.	.	.	.	.
=14-	=14-	=14-	=14-	=14-	=14-
0BB-X	.	0F	.	0d	.
.	.	.	.	.	.
=15-	=15-	=15-	=15-	=15-	=15-
!	!	!	!	!LO:TX:t=P:color=red:problem=kreska pseudotaktowa	!
0FF;	-men	0F;	-men	0c;	-men
.	.	.	.	.	.
=16-	=16-	=16-	=16-	=16-	=16-
1F	Et	1F	Et	1c	Et
*	*	*lig	*	*	*
1C	cu(m)	1G	cu(m)	1e	cu(m)
=17-	=17-	=17-	=17-	=17-	=17-
1F	.	1A	.	1f	.
*	*	*Xlig	*	*	*
1FF	ſpi-	1A	Spi-	2c/	Spi-
.	.	.	.	1f\	-ri-
=18-	=18-	=18-	=18-	=18-	=18-
1C	-ri-	1G	-ri-	.	.
.	.	.	.	2e\	.
*	*	*lig	*	*	*
1D	-tu	1F	-tu	1f	-tu
=19-	=19-	=19-	=19-	=19-	=19-
2C/	tu-	1G	.	2e\	.
2E-X/	.	.	.	2g\	.
*	*	*Xlig	*	*	*
2D/	.	0A	tu-	2f\	.
2C/	.	.	.	1g\	.
=20-	=20-	=20-	=20-	=20-	=20-
1D	.	.	.	.	.
.	.	.	.	2f\	.
[1GGl;	-o	[1Gl;	-o	1g	-tu-
=21-	=21-	=21-	=21-	=21-	=21-
0GG]	.	0G]	.	0g;<	-o
!LO:LB:g=original	!	!LO:LB:g=original	!	!LO:LB:g=original	!
=22-	=22-	=22-	=22-	=22-	=22-
!LO:TX:a:B:t=Medio\ncris:color=red	!	!LO:TX:a:B:t=Medio\ncris:color=red	!	!LO:TX:a:B:t=medio\ncris:color=red	!
1F	ha-	1F	ha-	1c	ha-
*	*	*lig	*	*	*
2D/	-be-	1F	-be-	2d/	-be-
*2\right	*	*	*	*	*
2F\	.	.	.	1c\	.
=23-	=23-	=23-	=23-	=23-	=23-
1C	.	1G	.	.	.
.	.	.	.	1g\	.
*lig	*	*Xlig	*	*	*
*	*	*lig	*	*	*
1F	.	1A	.	.	.
.	.	.	.	1f\	.
=24-	=24-	=24-	=24-	=24-	=24-
1G	.	1B-y	.	.	.
.	.	.	.	2e\	.
*Xlig	*	*Xlig	*	*	*
1F	-mus	1A	-mus	1f	-mus
=25-	=25-	=25-	=25-	=25-	=25-
1FF	ad	1A	ad	1c	ad
*	*	*lig	*	*	*
1C	do-	1G	do-	1c	do-
=26-	=26-	=26-	=26-	=26-	=26-
2FF/	.	1A	.	2c/	.
2F\	.	.	.	2d/	.
*	*	*Xlig	*	*	*
2C/	.	1G	.	2e/	.
2BB-y/	.	.	.	1f\	-mi-
=27-	=27-	=27-	=27-	=27-	=27-
1C	-mi-	1G	-mi-	.	.
.	.	.	.	2e\	.
*	*	*	*	*custos:f	*
!	!	!	!	!LO:LB:g=original	!
[1FFl;	-num	[1Fl;	-nu(m)	1f	.
=28-	=28-	=28-	=28-	=28-	=28-
!	!	!	!	!LO:TX:t=P:color=red:problem=kreska pseudotaktowa	!
0FF]	.	0F]	.	0f;<	-nu(m)
!LO:LB:g=original	!	!LO:LB:g=original	!	!	!
=29-	=29-	=29-	=29-	=29-	=29-
*lig	*	*lig	*	*	*
1F	Dig-	1F	Di-	1c	Di-
1Eny	.	1G	.	1e	.
*Xlig	*	*Xlig	*	*	*
=30-	=30-	=30-	=30-	=30-	=30-
*lig	*	*lig	*	*	*
1D	.	1A	.	0f	.
1BB-y	.	1B-y	.	.	.
*Xlig	*	*Xlig	*	*	*
=31-	=31-	=31-	=31-	=31-	=31-
1F	-gnum	1A	-gnu(m)	1f	-gnu(m)
1C	et	1A	et	2c/	et
.	.	.	.	1f\	.
=32-	=32-	=32-	=32-	=32-	=32-
*lig	*	*lig	*	*	*
1C	.	1G	iu-	.	.
.	.	.	.	2e/	.
1AA	.	1A	.	1c	.
*Xlig	*	*Xlig	*	*	*
=33-	=33-	=33-	=33-	=33-	=33-
1BB-y	iu-	1G	.	1d	iuſ-
1C	-ſtum	1G	-ſtum	1e	-tu(m)
=34-	=34-	=34-	=34-	=34-	=34-
1AA	.	[1Fl;	eſt	1f	.
1BB-y	.	0F_	.	1d	.
=35-	=35-	=35-	=35-	=35-	=35-
2BB-/	.	.	.	1c	.
[2FFl;/	eſt	.	.	.	.
!	!	!	!	!LO:N:vis=0	!
1FF]	.	1F]	.	1c;	eſt
==	==	==	==	==	==
*-	*-	*-	*-	*-	*-
!!!system-decoration: [(s1,s2,s3)]
!!!RDF**kern: < = below
!!!RDF**kern: l = terminal long
!!!ENC: Filip Voros
!!!END: 2021-12-24
!!!ENC: Andrzej Kubiczek
!!!END: 2021-12-29
